public/front/assets/imgs/brand/ninOne.svg

<svg width="100" height="56" viewBox="0 0 100 56" fill="none" xmlns="http://www.w3.org/2000/svg">
<g clip-path="url(#clip0_994_221)">
<path d="M15.9979 47.0878L12.523 54.5425C12.4878 54.6179 12.4722 54.701 12.4776 54.7841C12.4831 54.8672 12.5093 54.9475 12.5541 55.0177C12.5988 55.088 12.6605 55.1458 12.7335 55.1858C12.8065 55.2259 12.8884 55.2469 12.9716 55.2469H15.8432C15.9375 55.2468 16.0297 55.22 16.1092 55.1693C16.1887 55.1187 16.252 55.0465 16.2919 54.9611L19.7668 47.5091C19.802 47.4336 19.8176 47.3505 19.8121 47.2675C19.8067 47.1844 19.7804 47.104 19.7357 47.0338C19.691 46.9636 19.6292 46.9058 19.5563 46.8657C19.4833 46.8257 19.4014 46.8047 19.3181 46.8047H16.4465C16.3523 46.8048 16.2601 46.8317 16.1806 46.8823C16.1012 46.9329 16.0378 47.0051 15.9979 47.0905V47.0878Z" fill="#5AD235"/>
<path d="M95.3049 48.6758L94.7426 49.8779C94.725 49.9156 94.7173 49.9571 94.72 49.9986C94.7228 50.0401 94.7359 50.0802 94.7582 50.1153C94.7805 50.1503 94.8113 50.1792 94.8477 50.1992C94.8842 50.2193 94.925 50.2298 94.9666 50.2299H98.1535C98.1951 50.2299 98.236 50.2405 98.2724 50.2605C98.3088 50.2805 98.3396 50.3094 98.3619 50.3445C98.3843 50.3795 98.3974 50.4196 98.4001 50.4611C98.4029 50.5026 98.3951 50.5441 98.3776 50.5818L97.936 51.5293C97.8962 51.6147 97.8328 51.687 97.7534 51.7376C97.6739 51.7882 97.5816 51.8151 97.4874 51.8151H94.154C94.0598 51.815 93.9676 51.8418 93.8881 51.8923C93.8086 51.9429 93.7453 52.015 93.7054 52.1004L93.1425 53.3053C93.1249 53.3431 93.117 53.3847 93.1197 53.4263C93.1224 53.4679 93.1356 53.5081 93.158 53.5433C93.1804 53.5784 93.2113 53.6073 93.2479 53.6274C93.2844 53.6474 93.3255 53.6578 93.3671 53.6578H96.5541C96.5957 53.6578 96.6366 53.6682 96.6731 53.6882C96.7096 53.7082 96.7405 53.7371 96.7629 53.7721C96.7852 53.8072 96.7984 53.8474 96.8012 53.8889C96.8039 53.9304 96.7962 53.972 96.7786 54.0097L96.3371 54.9572C96.2972 55.0426 96.2338 55.1148 96.1544 55.1654C96.0749 55.216 95.9827 55.243 95.8885 55.243H89.8299C89.6634 55.243 89.4996 55.201 89.3537 55.1209C89.2077 55.0408 89.0843 54.9252 88.9948 54.7848C88.9054 54.6444 88.8528 54.4836 88.842 54.3175C88.8311 54.1514 88.8623 53.9852 88.9327 53.8343L91.877 47.5195C91.9767 47.3054 92.1355 47.1244 92.3348 46.9977C92.5341 46.8711 92.7654 46.8041 93.0016 46.8047H99.753C99.7946 46.8047 99.8356 46.8151 99.872 46.8351C99.9085 46.8551 99.9394 46.884 99.9618 46.9191C99.9842 46.9541 99.9974 46.9943 100 47.0358C100.003 47.0773 99.9951 47.1189 99.9776 47.1566L99.5361 48.1042C99.4961 48.1896 99.4327 48.2619 99.3531 48.3125C99.2735 48.3631 99.1812 48.39 99.0869 48.39H95.7535C95.6593 48.3899 95.567 48.4168 95.4875 48.4674C95.408 48.518 95.3446 48.5903 95.3049 48.6758Z" fill="#5AD235"/>
<path d="M51.1157 47.1568L50.6741 48.1044C50.6342 48.1898 50.5708 48.2621 50.4912 48.3127C50.4116 48.3633 50.3193 48.3902 50.225 48.3902H49.0004C48.9061 48.3902 48.8139 48.4171 48.7344 48.4677C48.6549 48.5183 48.5916 48.5906 48.5517 48.676L45.62 54.9602C45.5802 55.0456 45.5168 55.1178 45.4373 55.1685C45.3578 55.2191 45.2656 55.246 45.1714 55.246H42.2997C42.2165 55.246 42.1346 55.225 42.0616 55.1849C41.9886 55.1449 41.9269 55.0871 41.8822 55.0169C41.8375 54.9467 41.8112 54.8663 41.8057 54.7832C41.8003 54.7002 41.8159 54.6171 41.8511 54.5416L44.5566 48.7416C44.5741 48.7039 44.5819 48.6624 44.5791 48.6209C44.5764 48.5794 44.5633 48.5393 44.5409 48.5042C44.5186 48.4692 44.4878 48.4403 44.4514 48.4203C44.415 48.4002 44.3741 48.3897 44.3326 48.3896H43.2528C43.2112 48.3896 43.1703 48.379 43.1339 48.359C43.0975 48.339 43.0667 48.3101 43.0444 48.275C43.022 48.24 43.0089 48.1999 43.0062 48.1584C43.0034 48.1169 43.0112 48.0754 43.0287 48.0377L43.4702 47.088C43.5101 47.0028 43.5734 46.9307 43.6528 46.8802C43.7322 46.8297 43.8243 46.8028 43.9183 46.8027H50.8916C50.9332 46.8028 50.9741 46.8133 51.0105 46.8334C51.0469 46.8534 51.0777 46.8823 51.1 46.9173C51.1224 46.9524 51.1355 46.9925 51.1382 47.034C51.141 47.0755 51.1332 47.117 51.1157 47.1547V47.1568Z" fill="#5AD235"/>
<path d="M67.2145 47.5194L64.2686 53.8381C64.1982 53.989 64.167 54.1552 64.1779 54.3213C64.1888 54.4875 64.2413 54.6482 64.3308 54.7886C64.4202 54.929 64.5437 55.0447 64.6896 55.1248C64.8356 55.2048 64.9994 55.2468 65.1659 55.2469H73.1294C73.365 55.2468 73.5957 55.1795 73.7944 55.0529C73.9931 54.9263 74.1516 54.7456 74.2512 54.5321L77.1955 48.2134C77.2658 48.0627 77.297 47.8967 77.2863 47.7308C77.2755 47.5648 77.2231 47.4042 77.1339 47.2638C77.0447 47.1235 76.9216 47.0078 76.7759 46.9276C76.6303 46.8473 76.4667 46.8051 76.3004 46.8047H68.3364C68.1008 46.8047 67.8701 46.872 67.6713 46.9986C67.4726 47.1252 67.3142 47.3059 67.2145 47.5194ZM70.3774 53.6616H68.7036C68.6621 53.6615 68.6212 53.651 68.5848 53.631C68.5483 53.6109 68.5176 53.5821 68.4952 53.547C68.4729 53.5119 68.4598 53.4718 68.457 53.4303C68.4543 53.3889 68.4621 53.3474 68.4796 53.3097L70.6381 48.6757C70.6779 48.5904 70.7413 48.5181 70.8208 48.4675C70.9002 48.4169 70.9925 48.39 71.0867 48.39H72.7616C72.8032 48.3899 72.8441 48.4004 72.8806 48.4204C72.9171 48.4404 72.948 48.4692 72.9704 48.5043C72.9928 48.5394 73.006 48.5796 73.0087 48.6211C73.0115 48.6626 73.0037 48.7041 72.9862 48.7419L70.8244 53.3753C70.7848 53.4605 70.7217 53.5327 70.6425 53.5834C70.5634 53.6341 70.4714 53.6612 70.3774 53.6616Z" fill="#5AD235"/>
<path d="M90.0257 47.5089L86.7503 54.5319C86.6506 54.7454 86.4922 54.9261 86.2934 55.0527C86.0947 55.1793 85.864 55.2466 85.6284 55.2467H82.777C82.6457 55.2467 82.5198 55.1945 82.4269 55.1017C82.3341 55.0088 82.2819 54.8829 82.2819 54.7516V50.9477C82.2818 50.8915 82.2626 50.8369 82.2274 50.793C82.1921 50.7492 82.143 50.7186 82.0881 50.7064C82.0332 50.6942 81.9758 50.7011 81.9253 50.7258C81.8748 50.7506 81.8342 50.7919 81.8103 50.8428L79.8906 54.9609C79.8507 55.0462 79.7873 55.1184 79.7079 55.169C79.6284 55.2197 79.5362 55.2466 79.442 55.2467H76.5693C76.486 55.2467 76.4041 55.2257 76.3311 55.1856C76.2581 55.1456 76.1964 55.0878 76.1517 55.0175C76.107 54.9473 76.0807 54.867 76.0753 54.7839C76.0698 54.7008 76.0854 54.6177 76.1206 54.5423L79.3928 47.5193C79.4924 47.3057 79.6508 47.125 79.8495 46.9984C80.0483 46.8717 80.279 46.8045 80.5147 46.8045H83.3699C83.5012 46.8045 83.6271 46.8567 83.72 46.9495C83.8128 47.0423 83.865 47.1683 83.865 47.2996V51.1018C83.865 51.1581 83.8843 51.2126 83.9195 51.2565C83.9547 51.3003 84.0039 51.3309 84.0588 51.3431C84.1137 51.3553 84.1711 51.3485 84.2216 51.3237C84.2721 51.2989 84.3126 51.2576 84.3366 51.2067L86.2563 47.0876C86.2961 47.0022 86.3595 46.9299 86.4389 46.8793C86.5184 46.8287 86.6107 46.8018 86.7049 46.8018H89.5765C89.6602 46.8015 89.7425 46.8224 89.8159 46.8625C89.8893 46.9027 89.9514 46.9608 89.9962 47.0314C90.0411 47.102 90.0673 47.1828 90.0725 47.2663C90.0776 47.3498 90.0615 47.4333 90.0257 47.5089Z" fill="#5AD235"/>
<path d="M37.4996 48.6757L36.9373 49.8779C36.9198 49.9156 36.9121 49.9571 36.9148 49.9986C36.9175 50.0401 36.9307 50.0802 36.953 50.1153C36.9753 50.1503 37.0061 50.1792 37.0425 50.1992C37.0789 50.2193 37.1198 50.2298 37.1614 50.2299H40.3483C40.3899 50.2298 40.4309 50.2403 40.4674 50.2603C40.5038 50.2803 40.5347 50.3092 40.5571 50.3442C40.5795 50.3793 40.5927 50.4195 40.5954 50.461C40.5982 50.5025 40.5904 50.544 40.5729 50.5818L40.1314 51.5293C40.0915 51.6147 40.0281 51.6869 39.9486 51.7375C39.8692 51.7881 39.7769 51.8151 39.6827 51.8151H36.3494C36.2552 51.8151 36.163 51.842 36.0836 51.8925C36.0041 51.943 35.9407 52.0151 35.9007 52.1004L35.3401 53.3091C35.3224 53.3468 35.3146 53.3884 35.3172 53.4299C35.3199 53.4715 35.333 53.5117 35.3553 53.5468C35.3777 53.582 35.4085 53.6109 35.445 53.631C35.4815 53.651 35.5225 53.6616 35.5641 53.6616H38.751C38.7926 53.6617 38.8335 53.6722 38.8699 53.6922C38.9063 53.7123 38.9371 53.7411 38.9594 53.7762C38.9817 53.8113 38.9949 53.8514 38.9976 53.8928C39.0003 53.9343 38.9926 53.9758 38.9751 54.0135L38.5335 54.9611C38.4937 55.0465 38.4303 55.1187 38.3509 55.1693C38.2714 55.22 38.1791 55.2468 38.0849 55.2469H32.0253C31.8588 55.2468 31.695 55.2048 31.549 55.1248C31.403 55.0447 31.2796 54.929 31.1902 54.7886C31.1007 54.6482 31.0481 54.4875 31.0373 54.3213C31.0264 54.1552 31.0576 53.989 31.128 53.8381L34.0745 47.5194C34.174 47.3059 34.3325 47.1252 34.5312 46.9985C34.7299 46.8719 34.9607 46.8047 35.1963 46.8047H41.9478C41.9893 46.8048 42.0302 46.8153 42.0666 46.8353C42.1031 46.8553 42.1338 46.8842 42.1562 46.9193C42.1785 46.9544 42.1916 46.9945 42.1944 47.0359C42.1971 47.0774 42.1893 47.1189 42.1718 47.1566L41.7303 48.1042C41.6905 48.1895 41.6271 48.2618 41.5476 48.3124C41.4681 48.363 41.3759 48.3899 41.2816 48.39H37.9483C37.8541 48.39 37.7618 48.4169 37.6823 48.4675C37.6028 48.5181 37.5395 48.5904 37.4996 48.6757Z" fill="#5AD235"/>
<path d="M32.2198 47.5089L28.9449 54.5319C28.8454 54.7453 28.6871 54.9258 28.4886 55.0524C28.2901 55.179 28.0596 55.2464 27.8242 55.2467H24.9689C24.8376 55.2467 24.7117 55.1945 24.6189 55.1017C24.526 55.0088 24.4739 54.8829 24.4739 54.7516V50.9477C24.474 50.8912 24.4549 50.8364 24.4197 50.7923C24.3844 50.7482 24.3351 50.7175 24.28 50.7052C24.2249 50.693 24.1672 50.6999 24.1166 50.725C24.066 50.75 24.0255 50.7916 24.0017 50.8428L22.082 54.9609C22.0422 55.0463 21.9788 55.1185 21.8993 55.1691C21.8199 55.2198 21.7276 55.2467 21.6334 55.2467H18.7607C18.6774 55.2467 18.5955 55.2257 18.5225 55.1856C18.4496 55.1456 18.3879 55.0878 18.3431 55.0175C18.2984 54.9473 18.2721 54.867 18.2667 54.7839C18.2612 54.7008 18.2768 54.6177 18.312 54.5423L21.5875 47.5193C21.6869 47.3057 21.8453 47.125 22.0439 46.9984C22.2426 46.8718 22.4732 46.8045 22.7088 46.8045H25.564C25.629 46.8045 25.6934 46.8173 25.7535 46.8422C25.8136 46.8671 25.8681 46.9035 25.9141 46.9495C25.9601 46.9955 25.9965 47.0501 26.0214 47.1101C26.0463 47.1702 26.0591 47.2346 26.0591 47.2996V51.1018C26.0592 51.1581 26.0784 51.2126 26.1137 51.2565C26.1489 51.3003 26.198 51.3309 26.2529 51.3431C26.3078 51.3553 26.3652 51.3485 26.4157 51.3237C26.4662 51.2989 26.5068 51.2576 26.5307 51.2067L28.4509 47.0876C28.4908 47.0022 28.5542 46.93 28.6337 46.8794C28.7131 46.8288 28.8054 46.8018 28.8996 46.8018H31.7712C31.8548 46.8015 31.9371 46.8225 32.0104 46.8627C32.0838 46.9029 32.1457 46.961 32.1905 47.0316C32.2353 47.1022 32.2615 47.183 32.2666 47.2665C32.2717 47.3499 32.2556 47.4333 32.2198 47.5089Z" fill="#5AD235"/>
<path d="M13.9542 47.5089L10.6788 54.5319C10.5792 54.7454 10.4209 54.926 10.2222 55.0527C10.0236 55.1793 9.79299 55.2466 9.55745 55.2467H6.70332C6.57206 55.2465 6.44621 55.1943 6.3534 55.1015C6.26058 55.0087 6.20837 54.8828 6.20823 54.7516V50.9477C6.20815 50.8915 6.18891 50.8369 6.15369 50.793C6.11847 50.7492 6.06936 50.7186 6.01445 50.7064C5.95954 50.6942 5.9021 50.7011 5.85161 50.7258C5.80111 50.7506 5.76056 50.7919 5.73664 50.8428L3.8164 54.9609C3.77657 55.0463 3.71319 55.1185 3.63372 55.1691C3.55425 55.2198 3.46199 55.2467 3.36776 55.2467H0.495052C0.411804 55.2467 0.329901 55.2257 0.256919 55.1856C0.183936 55.1456 0.12223 55.0878 0.0775081 55.0175C0.0327859 54.9473 0.0064914 54.867 0.00105636 54.7839C-0.00437867 54.7008 0.0112213 54.6177 0.0464134 54.5423L3.32186 47.5193C3.42133 47.3057 3.57969 47.125 3.77833 46.9984C3.97696 46.8718 4.20762 46.8045 4.44318 46.8045H7.29841C7.42971 46.8045 7.55564 46.8567 7.64849 46.9495C7.74133 47.0423 7.79349 47.1683 7.79349 47.2996V51.1018C7.79357 51.1581 7.81281 51.2126 7.84803 51.2565C7.88326 51.3003 7.93237 51.3309 7.98728 51.3431C8.04219 51.3553 8.09962 51.3485 8.15012 51.3237C8.20061 51.2989 8.24116 51.2576 8.26508 51.2067L10.1853 47.0876C10.2252 47.0022 10.2886 46.93 10.3681 46.8794C10.4475 46.8288 10.5398 46.8018 10.634 46.8018H13.5056C13.5892 46.8015 13.6715 46.8225 13.7448 46.8627C13.8181 46.9029 13.8801 46.961 13.9249 47.0316C13.9697 47.1022 13.9959 47.183 14.001 47.2665C14.0061 47.3499 13.99 47.4333 13.9542 47.5089Z" fill="#5AD235"/>
<path d="M61.9854 47.1868L56.3313 52.1109C56.3051 52.1335 56.284 52.1615 56.2695 52.1929L54.9548 55.0126C54.9153 55.0982 54.852 55.1707 54.7724 55.2214C54.6929 55.272 54.6004 55.2988 54.5061 55.2984H51.6318C51.5485 55.2984 51.4666 55.2774 51.3936 55.2373C51.3207 55.1973 51.259 55.1395 51.2142 55.0693C51.1695 54.999 51.1432 54.9187 51.1378 54.8356C51.1323 54.7525 51.1479 54.6694 51.1831 54.594L52.7935 51.1388C52.82 51.0819 52.824 51.017 52.8045 50.9573L51.5826 47.1824C51.5705 47.1453 51.5674 47.1058 51.5735 47.0672C51.5796 47.0286 51.5948 46.992 51.6178 46.9604C51.6407 46.9288 51.6709 46.9031 51.7057 46.8853C51.7405 46.8676 51.779 46.8584 51.8181 46.8584H53.2935C53.372 46.8584 53.4484 46.8833 53.5118 46.9294C53.5752 46.9755 53.6224 47.0406 53.6465 47.1152L54.2547 48.9825C54.2611 49.0019 54.2723 49.0195 54.2871 49.0336C54.3019 49.0477 54.3201 49.0579 54.3398 49.0633C54.3596 49.0687 54.3803 49.0692 54.4003 49.0646C54.4203 49.06 54.4388 49.0506 54.4542 49.0371L56.987 46.8141C57.0324 46.7745 57.0907 46.7527 57.151 46.7529H61.822C61.8725 46.7527 61.9218 46.768 61.9634 46.7966C62.0049 46.8252 62.0368 46.8658 62.0546 46.913C62.0724 46.9602 62.0754 47.0117 62.0631 47.0606C62.0509 47.1096 62.024 47.1536 61.986 47.1868H61.9854Z" fill="#5AD235"/>
<path d="M82.2879 28.3901H86.6383C86.8106 28.39 86.9802 28.4334 87.1313 28.5163C87.2825 28.5991 87.4102 28.7188 87.5029 28.8641C87.5955 29.0095 87.6499 29.1759 87.6612 29.3479C87.6724 29.5198 87.6401 29.6919 87.5672 29.8481L85.7388 33.7705C85.574 34.1243 85.3117 34.4238 84.9825 34.6335C84.6534 34.8433 84.2712 34.9547 83.8809 34.9547H55.0095C54.8371 34.9548 54.6676 34.9114 54.5164 34.8285C54.3653 34.7457 54.2375 34.626 54.1449 34.4807C54.0523 34.3353 53.9978 34.1689 53.9866 33.997C53.9753 33.825 54.0076 33.6529 54.0805 33.4967L55.909 29.5737C56.0739 29.2201 56.3363 28.9208 56.6654 28.7111C56.9946 28.5015 57.3767 28.3901 57.7669 28.3901H62.9582C63.3485 28.3902 63.7306 28.2788 64.0597 28.0691C64.3888 27.8595 64.6513 27.5602 64.8162 27.2065L73.766 8.02597C73.839 7.86977 73.8714 7.69766 73.8602 7.5256C73.849 7.35354 73.7946 7.18708 73.702 7.04165C73.6094 6.89621 73.4815 6.77651 73.3303 6.69363C73.1791 6.61074 73.0094 6.56735 72.837 6.56748H68.3681C68.1959 6.56753 68.0263 6.52413 67.8752 6.44131C67.7242 6.35848 67.5965 6.2389 67.5039 6.09362C67.4113 5.94834 67.3568 5.78206 67.3455 5.61015C67.3342 5.43824 67.3664 5.26625 67.4392 5.11009L69.2676 1.1871C69.4324 0.833268 69.6947 0.533856 70.0239 0.324077C70.353 0.114298 70.7352 0.00287863 71.1255 0.0029305H87.4853C88.1748 0.00249575 88.8533 0.176056 89.458 0.507539C90.0627 0.839022 90.5739 1.31771 90.9444 1.89929C91.3149 2.48086 91.5327 3.14651 91.5776 3.83461C91.6224 4.52271 91.493 5.21101 91.2012 5.83578L81.3601 26.9349C81.2873 27.0911 81.2551 27.2631 81.2664 27.435C81.2778 27.607 81.3322 27.7733 81.4248 27.9186C81.5174 28.0639 81.6451 28.1835 81.7962 28.2664C81.9472 28.3493 82.1167 28.3928 82.289 28.3929L82.2879 28.3901Z" fill="#5AD235"/>
<path d="M20.8843 6.24108L14.6236 19.668C14.4057 20.1365 14.3094 20.6523 14.3435 21.1678C14.3776 21.6834 14.5411 22.182 14.8188 22.6177C15.0966 23.0533 15.4796 23.412 15.9326 23.6605C16.3855 23.9091 16.8938 24.0394 17.4105 24.0396H37.1812C37.3536 24.0395 37.5233 24.0829 37.6745 24.1658C37.8257 24.2487 37.9535 24.3684 38.0462 24.5138C38.1388 24.6592 38.1932 24.8257 38.2044 24.9977C38.2156 25.1698 38.1832 25.3419 38.1102 25.4981L35.7817 30.4872C35.6167 30.8408 35.3543 31.1398 35.0251 31.3493C34.696 31.5588 34.3139 31.67 33.9238 31.6698H17.1761C17.0036 31.6699 16.834 31.6265 16.6828 31.5436C16.5316 31.4607 16.4037 31.341 16.3111 31.1956C16.2185 31.0502 16.164 30.8837 16.1529 30.7117C16.1417 30.5396 16.1741 30.3675 16.2471 30.2113L16.8957 28.8222C16.9323 28.7441 16.9485 28.6581 16.9429 28.5721C16.9373 28.486 16.9101 28.4028 16.8638 28.3301C16.8174 28.2574 16.7535 28.1976 16.6779 28.1562C16.6023 28.1148 16.5175 28.0931 16.4312 28.0932H11.3448C11.1497 28.0932 10.9587 28.1489 10.7941 28.2538C10.6296 28.3586 10.4984 28.5082 10.4159 28.685L8.68198 32.4009C8.39016 33.0257 8.26069 33.714 8.30556 34.4021C8.35044 35.0902 8.56822 35.7559 8.93872 36.3374C9.30922 36.919 9.82046 37.3977 10.4251 37.7292C11.0298 38.0607 11.7083 38.2342 12.3979 38.2338H45.3228C46.2984 38.2338 47.2537 37.9554 48.0765 37.4312C48.8993 36.9071 49.5554 36.1589 49.9677 35.2747L62.1651 9.11106C62.4567 8.48634 62.5859 7.79815 62.5409 7.1102C62.4959 6.42226 62.2781 5.75678 61.9076 5.17536C61.5372 4.59394 61.026 4.11537 60.4215 3.78395C59.817 3.45252 59.1386 3.27895 58.4492 3.2793H25.5292C24.5534 3.27932 23.5979 3.55796 22.7751 4.08244C21.9522 4.60693 21.2963 5.35545 20.8843 6.23999V6.24108ZM40.5446 17.4773H33.6642C33.4919 17.4773 33.3223 17.4338 33.1711 17.3509C33.02 17.2679 32.8923 17.1482 32.7997 17.0029C32.7071 16.8575 32.6526 16.6911 32.6413 16.5191C32.6301 16.3471 32.6624 16.175 32.7353 16.0188L35.0637 11.0297C35.2287 10.6761 35.4912 10.377 35.8203 10.1674C36.1494 9.95787 36.5315 9.84656 36.9216 9.84658H43.7993C43.9717 9.8466 44.1413 9.89007 44.2924 9.973C44.4435 10.0559 44.5713 10.1756 44.6639 10.321C44.7565 10.4664 44.8109 10.6328 44.8222 10.8048C44.8334 10.9768 44.8012 11.1489 44.7283 11.3051L42.3993 16.2942C42.2346 16.6472 41.9728 16.946 41.6444 17.1556C41.316 17.3651 40.9342 17.4767 40.5446 17.4773Z" fill="#5AD235"/>
</g>
<defs>
<clipPath id="clip0_994_221">
<rect width="100" height="55.2984" fill="white"/>
</clipPath>
</defs>
</svg>

<svg xmlns="http://www.w3.org/2000/svg" width="100" height="56" fill="none"><g fill="#5AD235" clip-path="url(#a)"><path d="m15.998 47.088-3.475 7.454a.495.495 0 0 0 .449.705h2.871a.5.5 0 0 0 .449-.286l3.475-7.452a.494.494 0 0 0-.449-.704h-2.872a.5.5 0 0 0-.448.285zM95.305 48.676l-.562 1.202a.247.247 0 0 0 .224.352h3.186a.247.247 0 0 1 .225.352l-.442.947a.5.5 0 0 1-.449.286h-3.333a.5.5 0 0 0-.449.285l-.562 1.205a.25.25 0 0 0 .224.353h3.187a.247.247 0 0 1 .225.352l-.442.947a.5.5 0 0 1-.449.286H89.83a.99.99 0 0 1-.897-1.409l2.944-6.315a1.24 1.24 0 0 1 1.125-.714h6.751a.247.247 0 0 1 .225.352l-.442.947a.5.5 0 0 1-.45.286h-3.332a.5.5 0 0 0-.45.286M51.116 47.157l-.442.947a.5.5 0 0 1-.449.286H49a.5.5 0 0 0-.448.286L45.62 54.96a.5.5 0 0 1-.449.286H42.3a.495.495 0 0 1-.449-.704l2.706-5.8a.247.247 0 0 0-.224-.352h-1.08a.247.247 0 0 1-.224-.352l.441-.95a.5.5 0 0 1 .448-.285h6.974a.247.247 0 0 1 .224.352zM67.215 47.52l-2.946 6.318a.99.99 0 0 0 .897 1.409h7.963a1.24 1.24 0 0 0 1.122-.715l2.944-6.319a.99.99 0 0 0-.895-1.408h-7.964a1.24 1.24 0 0 0-1.121.714m3.162 6.142h-1.673a.248.248 0 0 1-.224-.352l2.158-4.634a.5.5 0 0 1 .449-.286h1.675a.246.246 0 0 1 .247.231.25.25 0 0 1-.023.12l-2.162 4.634a.5.5 0 0 1-.447.287M90.026 47.509l-3.276 7.023a1.24 1.24 0 0 1-1.122.715h-2.851a.495.495 0 0 1-.495-.495v-3.804a.248.248 0 0 0-.472-.105l-1.92 4.118a.5.5 0 0 1-.448.286h-2.873a.495.495 0 0 1-.448-.705l3.272-7.023a1.24 1.24 0 0 1 1.122-.715h2.855a.495.495 0 0 1 .495.496v3.802a.247.247 0 0 0 .472.105l1.92-4.12a.5.5 0 0 1 .448-.285h2.871a.495.495 0 0 1 .45.707M37.5 48.676l-.563 1.202a.248.248 0 0 0 .224.352h3.187a.247.247 0 0 1 .225.352l-.442.947a.5.5 0 0 1-.448.286h-3.334a.5.5 0 0 0-.448.285l-.56 1.21a.248.248 0 0 0 .223.352h3.187a.248.248 0 0 1 .224.352l-.442.947a.5.5 0 0 1-.448.286h-6.06a.99.99 0 0 1-.988-.926 1 1 0 0 1 .091-.483l2.947-6.319a1.24 1.24 0 0 1 1.121-.714h6.752a.248.248 0 0 1 .224.352l-.442.947a.5.5 0 0 1-.448.286h-3.334a.5.5 0 0 0-.448.286M32.22 47.509l-3.275 7.023a1.24 1.24 0 0 1-1.12.715h-2.856a.495.495 0 0 1-.495-.495v-3.804a.248.248 0 0 0-.357-.223.25.25 0 0 0-.115.118l-1.92 4.118a.49.49 0 0 1-.449.286h-2.872a.495.495 0 0 1-.449-.705l3.275-7.023a1.24 1.24 0 0 1 1.122-.715h2.855a.495.495 0 0 1 .495.496v3.802a.247.247 0 0 0 .472.105l1.92-4.12a.5.5 0 0 1 .449-.285h2.871a.494.494 0 0 1 .449.707M13.954 47.509l-3.275 7.023a1.24 1.24 0 0 1-1.122.715H6.703a.496.496 0 0 1-.495-.495v-3.804a.248.248 0 0 0-.471-.105l-1.92 4.118a.5.5 0 0 1-.45.286H.496a.494.494 0 0 1-.449-.705l3.276-7.023a1.24 1.24 0 0 1 1.121-.715h2.855a.495.495 0 0 1 .495.496v3.802a.248.248 0 0 0 .472.105l1.92-4.12a.5.5 0 0 1 .449-.285h2.872a.494.494 0 0 1 .448.707M61.985 47.187l-5.654 4.924a.24.24 0 0 0-.062.082l-1.314 2.82a.49.49 0 0 1-.449.285h-2.874a.495.495 0 0 1-.449-.704l1.61-3.455a.25.25 0 0 0 .011-.182l-1.221-3.775a.247.247 0 0 1 .235-.324h1.476a.37.37 0 0 1 .353.257l.608 1.867a.125.125 0 0 0 .145.083.1.1 0 0 0 .054-.028l2.533-2.223a.25.25 0 0 1 .164-.061h4.671a.248.248 0 0 1 .164.434M82.288 28.39h4.35a1.024 1.024 0 0 1 .93 1.458l-1.83 3.922a2.05 2.05 0 0 1-1.857 1.185H55.01a1.024 1.024 0 0 1-.93-1.458l1.829-3.923a2.05 2.05 0 0 1 1.858-1.184h5.191a2.05 2.05 0 0 0 1.858-1.184l8.95-19.18a1.025 1.025 0 0 0-.929-1.459h-4.469a1.025 1.025 0 0 1-.929-1.457l1.829-3.923A2.05 2.05 0 0 1 71.126.003h16.36A4.1 4.1 0 0 1 91.2 5.836l-9.84 21.099a1.025 1.025 0 0 0 .928 1.458zM20.884 6.241l-6.26 13.427a3.075 3.075 0 0 0 2.786 4.372h19.771a1.025 1.025 0 0 1 .93 1.458l-2.33 4.99a2.05 2.05 0 0 1-1.857 1.182H17.176a1.025 1.025 0 0 1-.929-1.459l.649-1.389a.51.51 0 0 0-.465-.729h-5.086a1.02 1.02 0 0 0-.93.592l-1.733 3.716a4.1 4.1 0 0 0 3.716 5.833h32.925a5.13 5.13 0 0 0 4.645-2.96L62.165 9.112A4.098 4.098 0 0 0 58.45 3.28H25.53a5.12 5.12 0 0 0-4.645 2.961zm19.66 11.236h-6.88a1.026 1.026 0 0 1-.929-1.458l2.329-4.99a2.05 2.05 0 0 1 1.858-1.182h6.877a1.025 1.025 0 0 1 .93 1.458l-2.33 4.99a2.05 2.05 0 0 1-1.854 1.182"/></g><defs><clipPath id="a"><path fill="#fff" d="M0 0h100v55.298H0z"/></clipPath></defs></svg>
